material/.icons/material/arrow-left-bold-circle-outline.svg

<svg xmlns="http://www.w3.org/2000/svg" viewBox="0 0 24 24"><path d="M7 12l5-5v3h4v4h-4v3l-5-5m15 0a10 10 0 01-10 10A10 10 0 012 12 10 10 0 0112 2a10 10 0 0110 10m-2 0a8 8 0 00-8-8 8 8 0 00-8 8 8 8 0 008 8 8 8 0 008-8z"/></svg>

<?xml version="1.0" encoding="UTF-8"?><!DOCTYPE svg PUBLIC "-//W3C//DTD SVG 1.1//EN" "http://www.w3.org/Graphics/SVG/1.1/DTD/svg11.dtd"><svg xmlns="http://www.w3.org/2000/svg" xmlns:xlink="http://www.w3.org/1999/xlink" version="1.1" id="mdi-arrow-left-bold-circle-outline" width="24" height="24" viewBox="0 0 24 24"><path d="M7,12L12,7V10H16V14H12V17L7,12M22,12A10,10 0 0,1 12,22A10,10 0 0,1 2,12A10,10 0 0,1 12,2A10,10 0 0,1 22,12M20,12A8,8 0 0,0 12,4A8,8 0 0,0 4,12A8,8 0 0,0 12,20A8,8 0 0,0 20,12Z" /></svg>
